;FLAVOR:UltiGCode
;TIME:1964
;MATERIAL:2587
;MATERIAL2:0

;Layer count: 104
;LAYER:0
M107
G0 F9000 X98.417 Y96.416 Z0.200
;TYPE:SKIRT
G1 F1200 X99.331 Y95.720 E0.09191
G1 X100.374 Y95.291 E0.18213
G1 X101.262 Y95.173 E0.25379
G1 X128.749 Y95.173 E2.45275
G1 X129.635 Y95.296 E2.52431
G1 X130.668 Y95.721 E2.61367
G1 X131.582 Y96.417 E2.70558
G1 X132.278 Y97.331 E2.79749
G1 X132.707 Y98.374 E2.88771
G1 X132.825 Y99.262 E2.95937
G1 X132.826 Y125.738 E5.07745
G1 X132.708 Y126.626 E5.14912
G1 X132.279 Y127.669 E5.23934
G1 X131.583 Y128.583 E5.33125
G1 X130.669 Y129.279 E5.42315
G1 X129.626 Y129.708 E5.51338
G1 X128.738 Y129.826 E5.58504
G1 X101.260 Y129.825 E7.78328
G1 X100.374 Y129.707 E7.85479
G1 X99.332 Y129.278 E7.94494
G1 X98.418 Y128.582 E8.03684
G1 X97.722 Y127.668 E8.12875
G1 X97.293 Y126.626 E8.21890
G1 X97.175 Y125.740 E8.29040
G1 X97.174 Y99.263 E10.40856
G1 X97.292 Y98.374 E10.48031
G1 X97.721 Y97.330 E10.57060
G1 X98.417 Y96.416 E10.66251
G0 F9000 X98.703 Y96.702
G1 F1200 X99.532 Y96.070 E10.74590
G1 X100.479 Y95.681 E10.82781
G1 X101.288 Y95.573 E10.89310
G1 X128.722 Y95.573 E13.08782
G1 X129.529 Y95.685 E13.15300
G1 X130.467 Y96.071 E13.23414
G1 X131.296 Y96.703 E13.31754
G1 X131.928 Y97.532 E13.40093
G1 X132.317 Y98.479 E13.48284
G1 X132.425 Y99.288 E13.54813
G1 X132.426 Y125.712 E15.66205
G1 X132.318 Y126.521 E15.72734
G1 X131.929 Y127.468 E15.80925
G1 X131.297 Y128.297 E15.89264
G1 X130.468 Y128.929 E15.97604
G1 X129.521 Y129.318 E16.05794
G1 X128.712 Y129.426 E16.12323
G1 X101.287 Y129.425 E18.31723
G1 X100.478 Y129.317 E18.38253
G1 X99.533 Y128.928 E18.46428
G1 X98.704 Y128.296 E18.54768
G1 X98.072 Y127.467 E18.63107
G1 X97.683 Y126.522 E18.71283
G1 X97.575 Y125.713 E18.77812
G1 X97.574 Y99.289 E20.89204
G1 X97.681 Y98.479 E20.95740
G1 X98.071 Y97.531 E21.03941
G1 X98.703 Y96.702 E21.12280
G10
G0 F9000 X101.374 Y99.539
;TYPE:WALL-INNER
G11
G1 F1200 X101.384 Y99.466 E21.12870
G1 X101.396 Y99.437 E21.13121
G1 X101.414 Y99.413 E21.13361
G1 X101.438 Y99.395 E21.13601
G1 X101.468 Y99.383 E21.13859
G1 X128.460 Y99.373 E23.29795
G1 X128.528 Y99.382 E23.30344
G1 X128.561 Y99.396 E23.30631
G1 X128.585 Y99.414 E23.30871
G1 X128.603 Y99.438 E23.31111
G1 X128.615 Y99.468 E23.31369
G1 X128.626 Y125.459 E25.39297
G1 X128.616 Y125.532 E25.39887
G1 X128.604 Y125.562 E25.40145
G1 X128.586 Y125.586 E25.40385
G1 X128.562 Y125.604 E25.40625
G1 X128.532 Y125.616 E25.40884
G1 X128.459 Y125.626 E25.41473
G1 X101.543 Y125.625 E27.56801
G1 X101.468 Y125.615 E27.57407
G1 X101.439 Y125.603 E27.57658
G1 X101.415 Y125.585 E27.57898
G1 X101.397 Y125.561 E27.58138
G1 X101.385 Y125.532 E27.58389
G1 X101.374 Y99.539 E29.66333
G0 F9000 X100.974 Y99.511
;TYPE:WALL-OUTER
G1 F1200 X100.993 Y99.364 E29.67519
G1 X101.046 Y99.236 E29.68627
G1 X101.129 Y99.128 E29.69717
G1 X101.237 Y99.045 E29.70806
G1 X101.365 Y98.992 E29.71915
G1 X101.511 Y98.973 E29.73092
G1 X128.486 Y98.973 E31.88892
G1 X128.634 Y98.994 E31.90088
G1 X128.762 Y99.046 E31.91194
G1 X128.870 Y99.129 E31.92283
G1 X128.953 Y99.237 E31.93373
G1 X129.006 Y99.365 E31.94481
G1 X129.025 Y99.511 E31.95659
G1 X129.026 Y125.489 E34.03483
G1 X129.007 Y125.635 E34.04661
G1 X128.954 Y125.763 E34.05769
G1 X128.871 Y125.871 E34.06859
G1 X128.763 Y125.954 E34.07949
G1 X128.635 Y126.007 E34.09057
G1 X128.489 Y126.026 E34.10235
G1 X101.512 Y126.025 E36.26051
G1 X101.366 Y126.005 E36.27230
G1 X101.238 Y125.953 E36.28335
G1 X101.130 Y125.870 E36.29425
G1 X101.047 Y125.762 E36.30514
G1 X100.995 Y125.634 E36.31620
G1 X100.975 Y125.488 E36.32798
G1 X100.974 Y99.511 E38.40614
G0 F9000 X101.512 Y99.533
;TYPE:SKIN
G1 F1200 X127.465 Y125.485 E41.34234
G0 F9000 X128.030 Y125.485
G1 F1200 X102.068 Y99.523 E44.27960
G0 F9000 X102.634 Y99.523
G1 F1200 X128.485 Y125.374 E47.20431
G0 F9000 X128.485 Y124.808
G1 F1200 X103.200 Y99.523 E50.06498
G0 F9000 X103.765 Y99.522
G1 F1200 X128.485 Y124.242 E52.86173
G0 F9000 X128.484 Y123.676
G1 F1200 X104.330 Y99.522 E55.59444
G0 F9000 X104.896 Y99.522
G1 F1200 X128.484 Y123.110 E58.26312
G0 F9000 X128.484 Y122.545
G1 F1200 X105.461 Y99.521 E60.86793
G0 F9000 X106.027 Y99.521
G1 F1200 X128.484 Y121.978 E63.40865
G0 F9000 X128.484 Y121.413
G1 F1200 X106.592 Y99.521 E65.88545
G0 F9000 X107.157 Y99.521
G1 F1200 X128.484 Y120.847 E68.29826
G0 F9000 X128.483 Y120.280
G1 F1200 X107.723 Y99.521 E70.64693
G0 F9000 X108.289 Y99.521
G1 F1200 X128.483 Y119.715 E72.93162
G0 F9000 X128.483 Y119.149
G1 F1200 X108.854 Y99.520 E75.15239
G0 F9000 X109.419 Y99.520
G1 F1200 X128.482 Y118.583 E77.30912
G0 F9000 X128.482 Y118.017
G1 F1200 X109.985 Y99.520 E79.40182
G0 F9000 X110.550 Y99.519
G1 F1200 X128.482 Y117.451 E81.43059
G0 F9000 X128.482 Y116.885
G1 F1200 X111.116 Y99.519 E83.39533
G0 F9000 X111.681 Y99.519
G1 F1200 X128.482 Y116.319 E85.29609
G0 F9000 X128.482 Y115.754
G1 F1200 X112.247 Y99.519 E87.13287
G0 F9000 X112.812 Y99.518
G1 F1200 X128.481 Y115.187 E88.90562
G0 F9000 X128.481 Y114.622
G1 F1200 X113.378 Y99.518 E90.61438
G0 F9000 X113.943 Y99.518
G1 F1200 X128.480 Y114.055 E92.25906
G0 F9000 X128.480 Y113.489
G1 F1200 X114.508 Y99.518 E93.83975
G0 F9000 X115.074 Y99.518
G1 F1200 X128.480 Y112.924 E95.35647
G0 F9000 X128.479 Y112.357
G1 F1200 X115.640 Y99.518 E96.80904
G0 F9000 X116.205 Y99.517
G1 F1200 X128.479 Y111.792 E98.19774
G0 F9000 X128.479 Y111.226
G1 F1200 X116.770 Y99.517 E99.52246
G0 F9000 X117.336 Y99.517
G1 F1200 X128.479 Y110.660 E100.78315
G0 F9000 X128.479 Y110.094
G1 F1200 X117.901 Y99.516 E101.97991
G0 F9000 X118.467 Y99.516
G1 F1200 X128.479 Y109.528 E103.11264
G0 F9000 X128.478 Y108.962
G1 F1200 X119.032 Y99.516 E104.18133
G0 F9000 X119.597 Y99.516
G1 F1200 X128.478 Y108.396 E105.18604
G0 F9000 X128.478 Y107.830
G1 F1200 X120.163 Y99.516 E106.12672
G0 F9000 X120.729 Y99.516
G1 F1200 X128.477 Y107.264 E107.00331
G0 F9000 X128.477 Y106.698
G1 F1200 X121.294 Y99.515 E107.81597
G0 F9000 X121.859 Y99.515
G1 F1200 X128.477 Y106.133 E108.56471
G0 F9000 X128.477 Y105.566
G1 F1200 X122.425 Y99.515 E109.24936
G0 F9000 X122.991 Y99.515
G1 F1200 X128.477 Y105.001 E109.87003
G0 F9000 X128.477 Y104.435
G1 F1200 X123.556 Y99.514 E110.42678
G0 F9000 X124.121 Y99.514
G1 F1200 X128.476 Y103.869 E110.91949
G0 F9000 X128.476 Y103.303
G1 F1200 X124.687 Y99.514 E111.34817
G0 F9000 X125.252 Y99.513
G1 F1200 X128.475 Y102.736 E111.71281
G0 F9000 X128.475 Y102.171
G1 F1200 X125.818 Y99.513 E112.01347
G0 F9000 X126.384 Y99.513
G1 F1200 X128.475 Y101.605 E112.25010
G0 F9000 X128.474 Y101.039
G1 F1200 X126.949 Y99.513 E112.42269
G0 F9000 X127.514 Y99.513
G1 F1200 X128.474 Y100.473 E112.53130
G0 F9000 X128.474 Y99.907
G1 F1200 X128.080 Y99.513 E112.57588
G0 F9000 X126.899 Y125.485
G1 F1200 X101.512 Y100.098 E115.44809
G0 F9000 X101.512 Y100.664
G1 F1200 X126.333 Y125.485 E118.25626
G0 F9000 X125.768 Y125.485
G1 F1200 X101.513 Y101.230 E121.00040
G0 F9000 X101.513 Y101.796
G1 F1200 X125.202 Y125.485 E123.68051
G0 F9000 X124.636 Y125.485
G1 F1200 X101.513 Y102.362 E126.29658
G0 F9000 X101.514 Y102.928
G1 F1200 X124.071 Y125.485 E128.84861
G0 F9000 X123.505 Y125.485
G1 F1200 X101.514 Y103.494 E131.33661
G0 F9000 X101.514 Y104.059
G1 F1200 X122.939 Y125.485 E133.76063
G0 F9000 X122.374 Y125.485
G1 F1200 X101.515 Y104.626 E136.12055
G0 F9000 X101.515 Y105.192
G1 F1200 X121.808 Y125.485 E138.41644
G0 F9000 X121.242 Y125.485
G1 F1200 X101.515 Y105.758 E140.64830
G0 F9000 X101.515 Y106.324
G1 F1200 X120.676 Y125.485 E142.81612
G0 F9000 X120.111 Y125.485
G1 F1200 X101.515 Y106.889 E144.92002
G0 F9000 X101.516 Y107.456
G1 F1200 X119.545 Y125.485 E146.95976
G0 F9000 X118.979 Y125.485
G1 F1200 X101.516 Y108.021 E148.93553
G0 F9000 X101.516 Y108.587
G1 F1200 X118.414 Y125.485 E150.84732
G0 F9000 X117.848 Y125.485
G1 F1200 X101.517 Y109.153 E152.69502
G0 F9000 X101.517 Y109.719
G1 F1200 X117.282 Y125.485 E154.47868
G0 F9000 X116.717 Y125.485
G1 F1200 X101.517 Y110.286 E156.19831
G0 F9000 X101.517 Y110.851
G1 F1200 X116.151 Y125.485 E157.85396
G0 F9000 X115.585 Y125.485
G1 F1200 X101.517 Y111.417 E159.44557
G0 F9000 X101.518 Y111.983
G1 F1200 X115.020 Y125.485 E160.97315
G0 F9000 X114.453 Y125.484
G1 F1200 X101.518 Y112.549 E162.43658
G0 F9000 X101.518 Y113.115
G1 F1200 X113.888 Y125.484 E163.83603
G0 F9000 X113.322 Y125.484
G1 F1200 X101.519 Y113.681 E165.17138
G0 F9000 X101.519 Y114.247
G1 F1200 X112.756 Y125.484 E166.44271
G0 F9000 X112.190 Y125.484
G1 F1200 X101.520 Y114.813 E167.64993
G0 F9000 X101.520 Y115.379
G1 F1200 X111.625 Y125.484 E168.79318
G0 F9000 X111.059 Y125.484
G1 F1200 X101.520 Y115.945 E169.87240
G0 F9000 X101.520 Y116.511
G1 F1200 X110.493 Y125.484 E170.88758
G0 F9000 X109.928 Y125.484
G1 F1200 X101.520 Y117.077 E171.83878
G0 F9000 X101.520 Y117.642
G1 F1200 X109.362 Y125.484 E172.72600
G0 F9000 X108.796 Y125.484
G1 F1200 X101.521 Y118.209 E173.54907
G0 F9000 X101.521 Y118.774
G1 F1200 X108.231 Y125.484 E174.30822
G0 F9000 X107.665 Y125.484
G1 F1200 X101.521 Y119.340 E175.00334
G0 F9000 X101.522 Y119.906
G1 F1200 X107.099 Y125.484 E175.63436
G0 F9000 X106.534 Y125.484
G1 F1200 X101.522 Y120.472 E176.20140
G0 F9000 X101.522 Y121.039
G1 F1200 X105.968 Y125.484 E176.70435
G0 F9000 X105.402 Y125.484
G1 F1200 X101.522 Y121.604 E177.14332
G0 F9000 X101.522 Y122.170
G1 F1200 X104.837 Y125.484 E177.51832
G0 F9000 X104.271 Y125.484
G1 F1200 X101.523 Y122.736 E177.82922
G0 F9000 X101.523 Y123.302
G1 F1200 X103.705 Y125.484 E178.07608
G0 F9000 X103.140 Y125.484
G1 F1200 X101.523 Y123.868 E178.25897
G0 F9000 X101.524 Y124.434
G1 F1200 X102.574 Y125.484 E178.37776
G0 F9000 X102.008 Y125.484
G1 F1200 X101.524 Y125.000 E178.43252
;LAYER:1
M106 S63
G0 F9000 X101.156 Y125.460 Z0.290
;TYPE:WALL-INNER
G1 F1620 X101.155 Y99.540 E179.36564
G1 X101.173 Y99.412 E179.37029
G1 X101.208 Y99.327 E179.37360
G1 X101.259 Y99.260 E179.37663
G1 X101.331 Y99.205 E179.37990
G1 X101.411 Y99.172 E179.38301
G1 X101.540 Y99.155 E179.38770
G1 X128.454 Y99.155 E180.35660
G1 X128.594 Y99.176 E180.36170
G1 X128.676 Y99.211 E180.36491
G1 X128.741 Y99.262 E180.36788
G1 X128.795 Y99.336 E180.37118
G1 X128.828 Y99.420 E180.37443
G1 X128.844 Y99.540 E180.37879
G1 X128.845 Y125.460 E181.31191
G1 X128.827 Y125.589 E181.31659
G1 X128.795 Y125.668 E181.31966
G1 X128.740 Y125.740 E181.32292
G1 X128.669 Y125.794 E181.32614
G1 X128.589 Y125.827 E181.32925
G1 X128.457 Y125.845 E181.33405
G1 X101.546 Y125.844 E182.30284
G1 X101.406 Y125.823 E182.30794
G1 X101.324 Y125.788 E182.31115
G1 X101.257 Y125.735 E182.31422
G1 X101.204 Y125.663 E182.31744
G1 X101.172 Y125.581 E182.32061
G1 X101.156 Y125.460 E182.32501
G0 F9000 X100.756 Y125.489
;TYPE:WALL-OUTER
G1 F1620 X100.755 Y99.514 E183.26011
G1 X100.784 Y99.304 E183.26774
G1 X100.856 Y99.129 E183.27455
G1 X100.975 Y98.974 E183.28159
G1 X101.129 Y98.855 E183.28859
G1 X101.309 Y98.781 E183.29560
G1 X101.511 Y98.755 E183.30293
G1 X128.485 Y98.755 E184.27399
G1 X128.703 Y98.787 E184.28193
G1 X128.882 Y98.864 E184.28894
G1 X129.034 Y98.984 E184.29591
G1 X129.147 Y99.139 E184.30282
G1 X129.219 Y99.321 E184.30986
G1 X129.244 Y99.511 E184.31676
G1 X129.245 Y125.486 E185.25186
G1 X129.216 Y125.695 E185.25946
G1 X129.144 Y125.871 E185.26630
G1 X129.025 Y126.025 E185.27331
G1 X128.871 Y126.144 E185.28032
G1 X128.691 Y126.217 E185.28731
G1 X128.488 Y126.245 E185.29469
G1 X101.515 Y126.244 E186.26572
G1 X101.297 Y126.212 E186.27365
G1 X101.118 Y126.135 E186.28066
G1 X100.968 Y126.016 E186.28756
G1 X100.852 Y125.859 E186.29458
G1 X100.781 Y125.678 E186.30158
G1 X100.756 Y125.489 E186.30845
G0 F9000 X101.295 Y125.261
;TYPE:SKIN
G1 F1620 X127.262 Y99.294 E187.63047
G0 F9000 X127.827 Y99.294
G1 F1620 X101.438 Y125.683 E188.97398
G0 F9000 X101.983 Y125.704
G1 F1620 X128.393 Y99.294 E190.31856
G0 F9000 X128.703 Y99.550
G1 F1620 X102.549 Y125.704 E191.65010
G0 F9000 X103.115 Y125.704
G1 F1620 X128.703 Y100.116 E192.95283
G0 F9000 X128.703 Y100.682
G1 F1620 X103.680 Y125.704 E194.22677
G0 F9000 X104.246 Y125.704
G1 F1620 X128.703 Y101.247 E195.47191
G0 F9000 X128.703 Y101.813
G1 F1620 X104.812 Y125.704 E196.68824
G0 F9000 X105.378 Y125.704
G1 F1620 X128.703 Y102.379 E197.87576
G0 F9000 X128.703 Y102.944
G1 F1620 X105.943 Y125.704 E199.03451
G0 F9000 X106.509 Y125.704
G1 F1620 X128.703 Y103.510 E200.16444
G0 F9000 X128.703 Y104.076
G1 F1620 X107.075 Y125.704 E201.26556
G0 F9000 X107.640 Y125.704
G1 F1620 X128.703 Y104.641 E202.33791
G0 F9000 X128.703 Y105.207
G1 F1620 X108.206 Y125.704 E203.38145
G0 F9000 X108.772 Y125.704
G1 F1620 X128.703 Y105.773 E204.39617
G0 F9000 X128.703 Y106.338
G1 F1620 X109.337 Y125.704 E205.38213
G0 F9000 X109.903 Y125.704
G1 F1620 X128.703 Y106.904 E206.33927
G0 F9000 X128.703 Y107.470
G1 F1620 X110.469 Y125.704 E207.26759
G0 F9000 X111.034 Y125.704
G1 F1620 X128.703 Y108.036 E208.16712
G0 F9000 X128.703 Y108.601
G1 F1620 X111.600 Y125.704 E209.03787
G0 F9000 X112.166 Y125.704
G1 F1620 X128.703 Y109.167 E209.87979
G0 F9000 X128.703 Y109.733
G1 F1620 X112.731 Y125.704 E210.69293
G0 F9000 X113.297 Y125.704
G1 F1620 X128.703 Y110.298 E211.47727
G0 F9000 X128.703 Y110.864
G1 F1620 X113.863 Y125.704 E212.23280
G0 F9000 X114.428 Y125.704
G1 F1620 X128.703 Y111.430 E212.95954
G0 F9000 X128.703 Y111.995
G1 F1620 X114.994 Y125.704 E213.65749
G0 F9000 X115.559 Y125.705
G1 F1620 X128.703 Y112.561 E214.32667
G0 F9000 X128.703 Y113.127
G1 F1620 X116.125 Y125.705 E214.96704
G0 F9000 X116.691 Y125.705
G1 F1620 X128.703 Y113.692 E215.57862
G0 F9000 X128.703 Y114.258
G1 F1620 X117.256 Y125.705 E216.16140
G0 F9000 X117.822 Y125.705
G1 F1620 X128.703 Y114.824 E216.71537
G0 F9000 X128.703 Y115.389
G1 F1620 X118.388 Y125.705 E217.24055
G0 F9000 X118.953 Y125.705
G1 F1620 X128.703 Y115.955 E217.73694
G0 F9000 X128.703 Y116.521
G1 F1620 X119.519 Y125.705 E218.20452
G0 F9000 X101.295 Y124.695
G1 F1620 X126.696 Y99.294 E219.49772
G0 F9000 X126.130 Y99.294
G1 F1620 X101.295 Y124.129 E220.76212
G0 F9000 X101.295 Y123.564
G1 F1620 X125.565 Y99.294 E221.99774
G0 F9000 X124.999 Y99.294
G1 F1620 X101.295 Y122.998 E223.20455
G0 F9000 X101.295 Y122.432
G1 F1620 X124.433 Y99.294 E224.38255
G0 F9000 X123.868 Y99.294
G1 F1620 X101.295 Y121.867 E225.53178
G0 F9000 X101.295 Y121.301
G1 F1620 X123.302 Y99.294 E226.65219
G0 F9000 X122.736 Y99.294
G1 F1620 X101.295 Y120.735 E227.74379
G0 F9000 X101.295 Y120.169
G1 F1620 X122.171 Y99.294 E228.80660
G0 F9000 X121.605 Y99.294
G1 F1620 X101.295 Y119.604 E229.84061
G0 F9000 X101.295 Y119.038
G1 F1620 X121.039 Y99.294 E230.84581
G0 F9000 X120.474 Y99.294
G1 F1620 X101.295 Y118.472 E231.82222
G0 F9000 X101.295 Y117.907
G1 F1620 X119.908 Y99.294 E232.76984
G0 F9000 X119.342 Y99.294
G1 F1620 X101.295 Y117.341 E233.68864
G0 F9000 X101.295 Y116.776
G1 F1620 X118.776 Y99.294 E234.57866
G0 F9000 X118.211 Y99.294
G1 F1620 X101.295 Y116.210 E235.43988
G0 F9000 X101.295 Y115.645
G1 F1620 X117.645 Y99.294 E236.27231
G0 F9000 X117.079 Y99.294
G1 F1620 X101.295 Y115.079 E237.07593
G0 F9000 X101.295 Y114.513
G1 F1620 X116.514 Y99.294 E237.85075
G0 F9000 X115.948 Y99.294
G1 F1620 X101.295 Y113.948 E238.59679
G0 F9000 X101.295 Y113.382
G1 F1620 X115.382 Y99.294 E239.31400
G0 F9000 X114.817 Y99.294
G1 F1620 X101.295 Y112.816 E240.00243
G0 F9000 X101.295 Y112.251
G1 F1620 X114.251 Y99.294 E240.66207
G0 F9000 X113.685 Y99.294
G1 F1620 X101.295 Y111.685 E241.29289
G0 F9000 X101.295 Y111.119
G1 F1620 X113.120 Y99.294 E241.89492
G0 F9000 X112.554 Y99.294
G1 F1620 X101.295 Y110.554 E242.46816
G0 F9000 X101.295 Y109.988
G1 F1620 X111.988 Y99.294 E243.01259
G0 F9000 X111.423 Y99.294
G1 F1620 X101.295 Y109.422 E243.52822
G0 F9000 X101.295 Y108.856
