;FLAVOR:UltiGCode
;TIME:1908
;MATERIAL:2461
;MATERIAL2:0

;Layer count: 60
;LAYER:0
M107
G0 F9000 X98.417 Y96.416 Z0.200
;TYPE:SKIRT
G1 F1200 X99.331 Y95.720 E0.09191
G1 X100.384 Y95.287 E0.18299
G1 X101.273 Y95.174 E0.25468
G1 X128.740 Y95.174 E2.45204
G1 X129.626 Y95.292 E2.52355
G1 X130.668 Y95.721 E2.61370
G1 X131.582 Y96.417 E2.70560
G1 X132.278 Y97.331 E2.79751
G1 X132.707 Y98.374 E2.88773
G1 X132.825 Y99.262 E2.95940
G1 X132.826 Y125.738 E5.07748
G1 X132.708 Y126.626 E5.14914
G1 X132.279 Y127.669 E5.23936
G1 X131.583 Y128.583 E5.33127
G1 X130.669 Y129.279 E5.42318
G1 X129.626 Y129.708 E5.51340
G1 X128.738 Y129.826 E5.58506
G1 X101.263 Y129.825 E7.78306
G1 X100.375 Y129.707 E7.85473
G1 X99.332 Y129.278 E7.94495
G1 X98.418 Y128.582 E8.03686
G1 X97.722 Y127.668 E8.12876
G1 X97.293 Y126.626 E8.21891
G1 X97.175 Y125.740 E8.29042
G1 X97.174 Y99.263 E10.40858
G1 X97.292 Y98.374 E10.48032
G1 X97.721 Y97.330 E10.57062
G1 X98.417 Y96.416 E10.66252
G0 F9000 X98.703 Y96.702
G1 F1200 X99.532 Y96.070 E10.74592
G1 X100.487 Y95.677 E10.82854
G1 X101.299 Y95.574 E10.89402
G1 X128.713 Y95.574 E13.08714
G1 X129.522 Y95.682 E13.15243
G1 X130.467 Y96.071 E13.23418
G1 X131.296 Y96.703 E13.31758
G1 X131.928 Y97.532 E13.40097
G1 X132.317 Y98.479 E13.48288
G1 X132.425 Y99.288 E13.54817
G1 X132.426 Y125.712 E15.66209
G1 X132.318 Y126.521 E15.72738
G1 X131.929 Y127.468 E15.80929
G1 X131.297 Y128.297 E15.89268
G1 X130.468 Y128.929 E15.97608
G1 X129.521 Y129.318 E16.05798
G1 X128.712 Y129.426 E16.12327
G1 X101.289 Y129.425 E18.31711
G1 X100.480 Y129.317 E18.38241
G1 X99.533 Y128.928 E18.46431
G1 X98.704 Y128.296 E18.54770
G1 X98.072 Y127.467 E18.63110
G1 X97.683 Y126.522 E18.71285
G1 X97.575 Y125.713 E18.77815
G1 X97.574 Y99.289 E20.89207
G1 X97.681 Y98.479 E20.95743
G1 X98.071 Y97.531 E21.03944
G1 X98.703 Y96.702 E21.12283
G10
G0 F9000 X101.374 Y99.539
;TYPE:WALL-INNER
G11
G1 F1200 X101.384 Y99.466 E21.12873
G1 X101.396 Y99.437 E21.13124
G1 X101.414 Y99.413 E21.13364
G1 X101.438 Y99.395 E21.13604
G1 X101.467 Y99.383 E21.13855
G1 X128.457 Y99.374 E23.29775
G1 X128.532 Y99.384 E23.30380
G1 X128.561 Y99.396 E23.30631
G1 X128.585 Y99.414 E23.30871
G1 X128.603 Y99.438 E23.31111
G1 X128.615 Y99.468 E23.31370
G1 X128.626 Y125.459 E25.39298
G1 X128.616 Y125.532 E25.39887
G1 X128.604 Y125.562 E25.40146
G1 X128.586 Y125.586 E25.40386
G1 X128.562 Y125.604 E25.40626
G1 X128.532 Y125.616 E25.40884
G1 X128.459 Y125.626 E25.41474
G1 X101.542 Y125.625 E27.56810
G1 X101.469 Y125.615 E27.57399
G1 X101.439 Y125.603 E27.57658
G1 X101.415 Y125.585 E27.57898
G1 X101.397 Y125.561 E27.58138
G1 X101.385 Y125.532 E27.58389
G1 X101.374 Y99.539 E29.66333
G0 F9000 X110.151 Y109.900
G1 F1200 X110.151 Y119.600 E30.43933
G1 X119.851 Y119.600 E31.21533
G1 X119.851 Y109.900 E31.99133
G1 X110.151 Y109.900 E32.76733
G0 F9000 X110.551 Y110.300
;TYPE:WALL-OUTER
G1 F1200 X110.551 Y119.200 E33.47933
G1 X119.451 Y119.200 E34.19133
G1 X119.451 Y110.300 E34.90333
G1 X110.551 Y110.300 E35.61533
G0 F9000 X110.551 Y110.000
G0 X101.275 Y99.532
G0 X100.974 Y99.511
G1 F1200 X100.993 Y99.364 E35.62718
G1 X101.046 Y99.236 E35.63827
G1 X101.129 Y99.128 E35.64916
G1 X101.237 Y99.045 E35.66006
G1 X101.365 Y98.992 E35.67114
G1 X101.510 Y98.974 E35.68283
G1 X128.488 Y98.974 E37.84107
G1 X128.634 Y98.994 E37.85286
G1 X128.762 Y99.046 E37.86392
G1 X128.870 Y99.129 E37.87481
G1 X128.953 Y99.237 E37.88571
G1 X129.006 Y99.365 E37.89679
G1 X129.025 Y99.511 E37.90857
G1 X129.026 Y125.489 E39.98681
G1 X129.007 Y125.635 E39.99859
G1 X128.954 Y125.763 E40.00967
G1 X128.871 Y125.871 E40.02057
G1 X128.763 Y125.954 E40.03147
G1 X128.635 Y126.007 E40.04255
G1 X128.489 Y126.026 E40.05433
G1 X101.512 Y126.025 E42.21249
G1 X101.366 Y126.006 E42.22427
G1 X101.238 Y125.953 E42.23535
G1 X101.130 Y125.870 E42.24625
G1 X101.047 Y125.762 E42.25714
G1 X100.995 Y125.634 E42.26819
G1 X100.975 Y125.488 E42.27998
G1 X100.974 Y99.511 E44.35814
G0 F9000 X101.512 Y99.533
;TYPE:SKIN
G1 F1200 X111.739 Y109.759 E45.51514
G0 F9000 X111.174 Y109.759
G1 F1200 X101.512 Y100.098 E46.60821
G0 F9000 X101.512 Y100.664
G1 F1200 X110.608 Y109.759 E47.63725
G0 F9000 X110.042 Y109.759
G1 F1200 X101.513 Y101.230 E48.60220
G0 F9000 X101.513 Y101.796
G1 F1200 X110.010 Y110.293 E49.56352
G0 F9000 X110.010 Y110.859
G1 F1200 X101.513 Y102.362 E50.52485
G0 F9000 X101.514 Y102.928
G1 F1200 X110.010 Y111.425 E51.48612
G0 F9000 X110.010 Y111.990
G1 F1200 X101.514 Y103.494 E52.44733
G0 F9000 X101.514 Y104.059
G1 F1200 X110.010 Y112.556 E53.40860
G0 F9000 X110.010 Y113.122
G1 F1200 X101.515 Y104.626 E54.36976
G0 F9000 X101.515 Y105.192
G1 F1200 X110.010 Y113.687 E55.33086
G0 F9000 X110.010 Y114.253
G1 F1200 X101.515 Y105.758 E56.29196
G0 F9000 X101.515 Y106.324
G1 F1200 X110.010 Y114.819 E57.25306
G0 F9000 X110.010 Y115.384
G1 F1200 X101.515 Y106.889 E58.21416
G0 F9000 X101.516 Y107.456
G1 F1200 X110.010 Y115.950 E59.17514
G0 F9000 X110.010 Y116.516
G1 F1200 X101.516 Y108.021 E60.13619
G0 F9000 X101.516 Y108.587
G1 F1200 X110.010 Y117.082 E61.09723
G0 F9000 X110.010 Y117.647
G1 F1200 X101.517 Y109.153 E62.05816
G0 F9000 X101.517 Y109.719
G1 F1200 X110.010 Y118.213 E63.01909
G0 F9000 X110.010 Y118.779
G1 F1200 X101.517 Y110.286 E63.97996
G0 F9000 X101.517 Y110.851
G1 F1200 X110.010 Y119.344 E64.94083
G0 F9000 X110.406 Y119.740
G1 F1200 X116.151 Y125.485 E65.59081
G0 F9000 X115.585 Y125.485
G1 F1200 X101.517 Y111.417 E67.18242
G0 F9000 X101.518 Y111.983
G1 F1200 X115.020 Y125.485 E68.71000
G0 F9000 X114.453 Y125.484
G1 F1200 X101.518 Y112.549 E70.17342
G0 F9000 X101.518 Y113.115
G1 F1200 X113.888 Y125.484 E71.57287
G0 F9000 X113.322 Y125.484
G1 F1200 X101.519 Y113.681 E72.90823
G0 F9000 X101.519 Y114.247
G1 F1200 X112.756 Y125.484 E74.17955
G0 F9000 X112.190 Y125.484
G1 F1200 X101.520 Y114.813 E75.38678
G0 F9000 X101.520 Y115.379
G1 F1200 X111.625 Y125.484 E76.53003
G0 F9000 X111.059 Y125.484
G1 F1200 X101.520 Y115.945 E77.60925
G0 F9000 X101.520 Y116.511
G1 F1200 X110.493 Y125.484 E78.62443
G0 F9000 X109.928 Y125.484
G1 F1200 X101.520 Y117.077 E79.57563
G0 F9000 X101.520 Y117.642
G1 F1200 X109.362 Y125.484 E80.46285
G0 F9000 X108.796 Y125.484
G1 F1200 X101.521 Y118.209 E81.28592
G0 F9000 X101.521 Y118.774
G1 F1200 X108.231 Y125.484 E82.04507
G0 F9000 X107.665 Y125.484
G1 F1200 X101.521 Y119.340 E82.74018
G0 F9000 X101.522 Y119.906
G1 F1200 X107.099 Y125.484 E83.37120
G0 F9000 X106.534 Y125.484
G1 F1200 X101.522 Y120.472 E83.93825
G0 F9000 X101.522 Y121.039
G1 F1200 X105.968 Y125.484 E84.44120
G0 F9000 X105.402 Y125.484
G1 F1200 X101.522 Y121.604 E84.88017
G0 F9000 X101.522 Y122.170
G1 F1200 X104.837 Y125.484 E85.25516
G0 F9000 X104.271 Y125.484
G1 F1200 X101.523 Y122.736 E85.56606
G0 F9000 X101.523 Y123.302
G1 F1200 X103.705 Y125.484 E85.81293
G0 F9000 X103.140 Y125.484
G1 F1200 X101.523 Y123.868 E85.99582
G0 F9000 X101.524 Y124.434
G1 F1200 X102.574 Y125.484 E86.11461
G0 F9000 X102.008 Y125.484
G1 F1200 X101.524 Y125.000 E86.16937
G0 F9000 X110.971 Y119.740
G1 F1200 X116.717 Y125.485 E86.81940
G0 F9000 X117.282 Y125.485
G1 F1200 X111.537 Y119.740 E87.46937
G0 F9000 X112.103 Y119.740
G1 F1200 X117.848 Y125.485 E88.11934
G0 F9000 X118.414 Y125.485
G1 F1200 X112.668 Y119.740 E88.76937
G0 F9000 X113.234 Y119.740
G1 F1200 X118.979 Y125.485 E89.41934
G0 F9000 X119.545 Y125.485
G1 F1200 X113.800 Y119.740 E90.06932
G0 F9000 X114.366 Y119.740
G1 F1200 X120.111 Y125.485 E90.71929
G0 F9000 X120.676 Y125.485
G1 F1200 X114.931 Y119.740 E91.36926
G0 F9000 X115.497 Y119.740
G1 F1200 X121.242 Y125.485 E92.01923
G0 F9000 X121.808 Y125.485
G1 F1200 X116.063 Y119.740 E92.66921
G0 F9000 X116.628 Y119.740
G1 F1200 X122.374 Y125.485 E93.31924
G0 F9000 X122.939 Y125.485
G1 F1200 X117.194 Y119.740 E93.96921
G0 F9000 X117.760 Y119.740
G1 F1200 X123.505 Y125.485 E94.61918
G0 F9000 X124.071 Y125.485
G1 F1200 X118.325 Y119.740 E95.26921
G0 F9000 X118.891 Y119.740
G1 F1200 X124.636 Y125.485 E95.91918
G0 F9000 X125.202 Y125.485
G1 F1200 X119.457 Y119.740 E96.56916
G0 F9000 X119.990 Y119.707
G1 F1200 X125.768 Y125.485 E97.22286
G0 F9000 X126.333 Y125.485
G1 F1200 X119.990 Y119.141 E97.94055
G0 F9000 X119.990 Y118.576
G1 F1200 X126.899 Y125.485 E98.72221
G0 F9000 X127.465 Y125.485
G1 F1200 X119.990 Y118.010 E99.56791
G0 F9000 X119.990 Y117.444
G1 F1200 X128.030 Y125.485 E100.47759
G0 F9000 X128.485 Y125.374
G1 F1200 X119.990 Y116.879 E101.43869
G0 F9000 X119.990 Y116.313
G1 F1200 X128.485 Y124.808 E102.39979
G0 F9000 X128.485 Y124.242
G1 F1200 X119.990 Y115.747 E103.36089
G0 F9000 X119.990 Y115.182
G1 F1200 X128.484 Y123.676 E104.32187
G0 F9000 X128.484 Y123.110
G1 F1200 X119.990 Y114.616 E105.28286
G0 F9000 X119.990 Y114.050
G1 F1200 X128.484 Y122.545 E106.24390
G0 F9000 X128.484 Y121.978
G1 F1200 X119.990 Y113.484 E107.20489
G0 F9000 X119.990 Y112.919
G1 F1200 X128.484 Y121.413 E108.16588
G0 F9000 X128.484 Y120.847
G1 F1200 X119.990 Y112.353 E109.12686
G0 F9000 X119.990 Y111.787
G1 F1200 X128.483 Y120.280 E110.08774
G0 F9000 X128.483 Y119.715
G1 F1200 X119.990 Y111.222 E111.04861
G0 F9000 X119.990 Y110.656
G1 F1200 X128.483 Y119.149 E112.00948
G0 F9000 X128.482 Y118.583
G1 F1200 X119.990 Y110.090 E112.97030
G0 F9000 X119.659 Y109.759
G1 F1200 X109.420 Y99.521 E114.12865
G0 F9000 X109.985 Y99.520
G1 F1200 X128.482 Y118.017 E116.22135
G0 F9000 X128.482 Y117.451
G1 F1200 X110.551 Y99.520 E118.25001
G0 F9000 X111.116 Y99.520
G1 F1200 X128.482 Y116.885 E120.21469
G0 F9000 X128.482 Y116.319
G1 F1200 X111.682 Y99.520 E122.11534
G0 F9000 X112.247 Y99.519
G1 F1200 X128.482 Y115.754 E123.95212
G0 F9000 X128.481 Y115.187
G1 F1200 X112.813 Y99.519 E125.72475
G0 F9000 X113.378 Y99.519
G1 F1200 X128.481 Y114.622 E127.43346
G0 F9000 X128.480 Y114.055
G1 F1200 X113.944 Y99.519 E129.07802
G0 F9000 X114.509 Y99.518
G1 F1200 X128.480 Y113.489 E130.65866
G0 F9000 X128.480 Y112.924
G1 F1200 X115.075 Y99.518 E132.17532
G0 F9000 X115.640 Y99.518
G1 F1200 X128.479 Y112.357 E133.62789
G0 F9000 X128.479 Y111.792
G1 F1200 X116.205 Y99.518 E135.01653
G0 F9000 X116.771 Y99.518
G1 F1200 X128.479 Y111.226 E136.34114
G0 F9000 X128.479 Y110.660
G1 F1200 X117.337 Y99.518 E137.60171
G0 F9000 X117.902 Y99.518
G1 F1200 X128.479 Y110.094 E138.79831
G0 F9000 X128.479 Y109.528
G1 F1200 X118.467 Y99.517 E139.93098
G0 F9000 X119.033 Y99.517
G1 F1200 X128.478 Y108.962 E140.99956
G0 F9000 X128.478 Y108.396
G1 F1200 X119.599 Y99.517 E142.00410
G0 F9000 X119.093 Y109.759
G1 F1200 X108.854 Y99.521 E143.16246
G0 F9000 X108.289 Y99.521
G1 F1200 X118.528 Y109.759 E144.32081
G0 F9000 X117.962 Y109.759
G1 F1200 X107.724 Y99.521 E145.47911
G0 F9000 X107.158 Y99.521
G1 F1200 X117.396 Y109.759 E146.63741
G0 F9000 X116.831 Y109.759
G1 F1200 X106.592 Y99.521 E147.79576
G0 F9000 X106.027 Y99.521
G1 F1200 X116.265 Y109.759 E148.95406
G0 F9000 X115.699 Y109.759
G1 F1200 X105.462 Y99.522 E150.11224
G0 F9000 X104.896 Y99.522
G1 F1200 X115.133 Y109.759 E151.27043
G0 F9000 X114.568 Y109.759
G1 F1200 X104.330 Y99.522 E152.42867
G0 F9000 X103.765 Y99.522
G1 F1200 X114.002 Y109.759 E153.58685
G0 F9000 X113.436 Y109.759
G1 F1200 X103.200 Y99.523 E154.74492
G0 F9000 X102.634 Y99.523
G1 F1200 X112.871 Y109.759 E155.90305
G0 F9000 X112.305 Y109.759
G1 F1200 X102.068 Y99.523 E157.06118
G0 F9000 X120.165 Y99.517
G1 F1200 X128.478 Y107.830 E158.00169
G0 F9000 X128.477 Y107.264
G1 F1200 X120.729 Y99.516 E158.87827
G0 F9000 X121.295 Y99.516
G1 F1200 X128.477 Y106.698 E159.69082
G0 F9000 X128.477 Y106.133
G1 F1200 X121.861 Y99.516 E160.43940
G0 F9000 X122.426 Y99.516
G1 F1200 X128.477 Y105.566 E161.12393
G0 F9000 X128.477 Y105.001
G1 F1200 X122.992 Y99.516 E161.74449
G0 F9000 X123.557 Y99.516
G1 F1200 X128.477 Y104.435 E162.30107
G0 F9000 X128.476 Y103.869
G1 F1200 X124.123 Y99.516 E162.79355
G0 F9000 X124.688 Y99.515
G1 F1200 X128.476 Y103.303 E163.22212
G0 F9000 X128.475 Y102.736
G1 F1200 X125.254 Y99.515 E163.58653
G0 F9000 X125.819 Y99.515
G1 F1200 X128.475 Y102.171 E163.88702
G0 F9000 X128.475 Y101.605
G1 F1200 X126.385 Y99.515 E164.12348
G0 F9000 X126.950 Y99.514
G1 F1200 X128.474 Y101.039 E164.29596
G0 F9000 X128.474 Y100.473
G1 F1200 X127.516 Y99.514 E164.40440
G0 F9000 X128.081 Y99.514
G1 F1200 X128.474 Y99.907 E164.44886
;LAYER:1
M106 S63
G0 F9000 X128.844 Y99.540 Z0.290
;TYPE:WALL-INNER
G1 F1620 X128.845 Y125.460 E165.38198
G1 X128.827 Y125.589 E165.38667
G1 X128.795 Y125.668 E165.38974
G1 X128.740 Y125.740 E165.39300
G1 X128.669 Y125.794 E165.39621
G1 X128.589 Y125.827 E165.39933
G1 X128.457 Y125.845 E165.40412
G1 X101.547 Y125.844 E166.37288
G1 X101.405 Y125.823 E166.37805
G1 X101.327 Y125.790 E166.38110
G1 X101.257 Y125.734 E166.38433
G1 X101.204 Y125.663 E166.38752
G1 X101.172 Y125.580 E166.39072
G1 X101.156 Y99.542 E167.32809
G1 X101.173 Y99.410 E167.33288
G1 X101.208 Y99.327 E167.33612
G1 X101.260 Y99.259 E167.33920
G1 X101.328 Y99.207 E167.34228
G1 X101.413 Y99.172 E167.34559
G1 X101.536 Y99.156 E167.35006
G1 X128.457 Y99.156 E168.31921
G1 X128.594 Y99.176 E168.32420
G1 X128.676 Y99.211 E168.32741
G1 X128.741 Y99.262 E168.33038
G1 X128.795 Y99.336 E168.33368
G1 X128.828 Y99.420 E168.33693
G1 X128.844 Y99.540 E168.34129
G0 F9000 X119.851 Y109.900
G1 F1620 X110.151 Y109.900 E168.69049
G1 X110.151 Y119.600 E169.03969
G1 X119.851 Y119.600 E169.38889
G1 X119.851 Y109.900 E169.73809
G0 F9000 X119.451 Y110.300
;TYPE:WALL-OUTER
G1 F1620 X110.551 Y110.300 E170.05849
G1 X110.551 Y119.200 E170.37889
G1 X119.451 Y119.200 E170.69929
G1 X119.451 Y110.300 E171.01969
G0 F9000 X119.451 Y110.000
G0 X128.944 Y99.539
G0 X129.244 Y99.511
G1 F1620 X129.245 Y125.486 E171.95479
G1 X129.216 Y125.695 E171.96238
G1 X129.144 Y125.871 E171.96923
G1 X129.025 Y126.025 E171.97624
G1 X128.871 Y126.144 E171.98324
G1 X128.691 Y126.217 E171.99023
G1 X128.488 Y126.245 E171.99761
G1 X101.516 Y126.244 E172.96860
G1 X101.297 Y126.212 E172.97657
G1 X101.119 Y126.135 E172.98355
G1 X100.967 Y126.016 E172.99050
G1 X100.852 Y125.859 E172.99751
G1 X100.781 Y125.678 E173.00451
G1 X100.757 Y125.491 E173.01130
G1 X100.756 Y99.512 E173.94654
G1 X100.784 Y99.304 E173.95410
G1 X100.856 Y99.129 E173.96091
G1 X100.975 Y98.974 E173.96794
G1 X101.130 Y98.855 E173.97498
G1 X101.309 Y98.781 E173.98195
G1 X101.510 Y98.756 E173.98924
G1 X128.486 Y98.756 E174.96038
G1 X128.703 Y98.787 E174.96827
G1 X128.882 Y98.864 E174.97528
G1 X129.034 Y98.984 E174.98226
G1 X129.147 Y99.139 E174.98916
G1 X129.219 Y99.321 E174.99621
G1 X129.244 Y99.511 E175.00311
G0 F9000 X128.703 Y99.550
;TYPE:SKIN
G1 F1620 X118.494 Y109.759 E175.52286
G0 F9000 X119.059 Y109.759
G1 F1620 X128.703 Y100.116 E176.01383
G0 F9000 X128.703 Y100.682
G1 F1620 X119.625 Y109.759 E176.47598
G0 F9000 X119.990 Y109.960
G1 F1620 X128.703 Y101.247 E176.91958
G0 F9000 X128.703 Y101.813
G1 F1620 X119.990 Y110.526 E177.36317
G0 F9000 X119.990 Y111.092
G1 F1620 X128.703 Y102.379 E177.80676
G0 F9000 X128.703 Y102.944
G1 F1620 X119.990 Y111.657 E178.25036
G0 F9000 X119.990 Y112.223
G1 F1620 X128.703 Y103.510 E178.69395
G0 F9000 X128.703 Y104.076
G1 F1620 X119.990 Y112.789 E179.13754
G0 F9000 X119.990 Y113.354
G1 F1620 X128.703 Y104.641 E179.58114
G0 F9000 X128.703 Y105.207
G1 F1620 X119.990 Y113.920 E180.02473
G0 F9000 X119.990 Y114.486
G1 F1620 X128.703 Y105.773 E180.46832
G0 F9000 X128.703 Y106.338
G1 F1620 X119.990 Y115.051 E180.91192
G0 F9000 X119.990 Y115.617
G1 F1620 X128.703 Y106.904 E181.35551
G0 F9000 X128.703 Y107.470
G1 F1620 X119.990 Y116.183 E181.79910
G0 F9000 X119.990 Y116.748
G1 F1620 X128.703 Y108.036 E182.24267
G0 F9000 X128.703 Y108.601
G1 F1620 X119.990 Y117.314 E182.68627
G0 F9000 X119.990 Y117.880
